X:1
T:When the Angels Come for Me
T:When the Angels Come for Me
T:Will A. Aders
T:George Dunn, 1914
T:Public Domain Courtesy of the Cyber Hymnal™
T:Public Domain Courtesy of the Cyber Hymnal™
C:Will A. Aders
Z:Public Domain
Z:Courtesy of the Cyber Hymnal™
%%score ( 1 2 ) ( 3 4 )
L:1/8
Q:1/4=93
M:4/4
K:F
V:1 treble 
V:2 treble 
V:3 bass 
V:4 bass 
V:1
 [CF][CG] | [FA][FA][FA][F^G] [FA][Fc]F[F=G] | [FA][FB][FA][EG] F2 [FA][FA] | %3
w: 1.~Sav- ior,|when my life has end- ed, When my|work on earth is done, When the|
w: 2.~Sav- ior,|when my feet, so wea- ry, Reach their|jour- ney’s end at last, Oft the|
w: 3.~Sav- ior,|when my loved ones, weep- ing, And my|friends are draw- ing near, Bend- ing|
 [EG][^D^F][EG][=FA] [GB][GB][EG][EG] | [FA][FA][F=B][Fd] [Ec]2 [CF][CG] | %5
w: an- gels have des- cend- ed, To con-|vey my spir- it home, May my|
w: road’s been sad and drea- ry, Ma- ny|dan- gers I have passed, May my|
w: low and si- lence keep- ing, That my|last words they may hear, May the|
 [FA][FA][FA][F^G] [FA][Fc]F[F=G] | [FA][FB][FA][EG] F2 [Fc][Fc] | %7
w: life be full of beau- ty, May I|still be true to Thee, Stand- ing|
w: jour- ney be vic- to- rious, May my|life ap- pear to Thee, Shin- ing|
w: life work I have giv- en On Thine|own fair rec- ord be Spot- less|
 [Af][Be][Af][Fd] [Fc][FA][Fc][Fd] | [Fc]3 [GB] [FA]2 [CG]2 | [CF]6 ||"^Refrain" [Fc][Fc] | %11
w: at my post of du- ty, When the|an- gels come for|me.||
w: as my crown so glo- rious, When the|an- gels come for|me.|When the|
w: as my robe in Hea- ven, When the|an- gels come for|me.||
 e4- [Ge][Ge][Gd][Bc] | f6 [Fc][Fc] | c4- [Ec][EB][EG][GB] | A6 [Fc][Fc] | f4- [Af][Af][ce][Bd] | %16
w: |||||
w: an- gels come for me,|* I be-|lieve that I will see|* Spir- it|forms so bright and fair,|
w: |||||
 c6 [Fc][Fd] | [Fc]3 [GB] [FA]2 [CG]2 | [CF]6 |] %19
w: |||
w: * As they|hov- er in the|air.|
w: |||
V:2
 x2 | x6 F x | x4 F2 x2 | x8 | x8 | x6 F x | x4 F2 x2 | x8 | x8 | x6 || x2 | G G G G x4 | %12
 (AAAA A2) x2 | E E E E x4 | (FFFF F2) x2 | A A A A x4 | (AAGB A2) x2 | x8 | x6 |] %19
V:3
 [F,A,][F,B,] | [F,C][F,C][F,C][F,=B,] [F,C][F,A,][A,,C][=B,,D] | %2
w: ||
 [C,C][C,D][C,C][C,B,] [F,A,]2 [F,C][F,C] | [C,C][C,C][C,C][C,C] [C,C][C,C][C,C][C,C] | %4
w: ||
 [F,C][D,D][G,D][G,=B,] [C,C]2 [F,A,][F,_B,] | [F,C][F,C][F,C][F,=B,] [F,C][F,A,][A,,C][=B,,D] | %6
w: ||
 [C,C][C,D][C,C][C,B,] [F,A,]2 [F,A,][F,A,] | [F,C][G,C][A,C]B, [F,A,][F,C][F,A,][F,B,] | %8
w: |* * * When * * * *|
 [F,A,]3 [B,,D] [C,C]2 [C,B,]2 | [F,A,]6 || [F,A,][F,A,] | %11
w: ||the an-|
 [C,C][C,C][C,C][C,C] [C,C][C,C][D,C][E,C] | [F,C][F,C][F,C][F,C] [F,C]2 [F,A,][F,A,] | %13
w: gels come for me, yes, when the an-|gels come for me, I be- lieve|
 [C,G,][C,G,][C,G,][C,G,] [C,G,][C,C][C,C][C,C] | [F,C][F,C][F,C][F,C] [F,C]2 [F,A,][F,A,] | %15
w: that I will see, yes, I be- lieve|that I will see Spir- it forms|
 [F,C][F,C][F,C][F,C] [F,C][F,C][F,D][F,E] | [D,F][D,F][C,E][C,G] [F,F]2 [F,A,][F,B,] | %17
w: so bright and fair, yes, spir- it forms|so bright and fair, * * *|
 [F,A,]3 [B,,D] [C,C]2 [C,B,]2 | [F,A,]6 |] %19
w: ||
V:4
 x2 | x8 | x8 | x8 | x8 | x8 | x8 | x3 B, x4 | x8 | x6 || x2 | x8 | x8 | x8 | x8 | x8 | x8 | x8 | %18
 x6 |] %19

